icons/src/scalable/emblems/chat-none-symbolic.svg

<?xml version="1.0" encoding="UTF-8" standalone="no"?>
<svg
   height="16"
   id="svg7384"
   version="1.1"
   width="16"
   sodipodi:docname="chat-none-symbolic.svg"
   inkscape:version="1.1 (c68e22c387, 2021-05-23)"
   xmlns:inkscape="http://www.inkscape.org/namespaces/inkscape"
   xmlns:sodipodi="http://sodipodi.sourceforge.net/DTD/sodipodi-0.dtd"
   xmlns="http://www.w3.org/2000/svg"
   xmlns:svg="http://www.w3.org/2000/svg"
   xmlns:rdf="http://www.w3.org/1999/02/22-rdf-syntax-ns#"
   xmlns:cc="http://creativecommons.org/ns#"
   xmlns:dc="http://purl.org/dc/elements/1.1/">
  <sodipodi:namedview
     id="namedview21"
     pagecolor="#ffffff"
     bordercolor="#666666"
     borderopacity="1.0"
     inkscape:pageshadow="2"
     inkscape:pageopacity="0.0"
     inkscape:pagecheckerboard="0"
     showgrid="true"
     inkscape:zoom="33.25"
     inkscape:cx="9.8195489"
     inkscape:cy="15.203008"
     inkscape:window-width="1366"
     inkscape:window-height="704"
     inkscape:window-x="0"
     inkscape:window-y="27"
     inkscape:window-maximized="1"
     inkscape:current-layer="svg7384">
    <inkscape:grid
       type="xygrid"
       id="grid23" />
  </sodipodi:namedview>
  <metadata
     id="metadata20854">
    <rdf:RDF>
      <cc:Work
         rdf:about="">
        <dc:title />
        <dc:format>image/svg+xml</dc:format>
        <dc:type
           rdf:resource="http://purl.org/dc/dcmitype/StillImage" />
      </cc:Work>
    </rdf:RDF>
  </metadata>
  <defs
     id="defs7386">
    <linearGradient
       id="linearGradient5606"
       inkscape:swatch="solid">
      <stop
         id="stop5608"
         offset="0"
         style="stop-color:#000000;stop-opacity:1;" />
    </linearGradient>
    <linearGradient
       id="linearGradient4526"
       inkscape:swatch="solid">
      <stop
         id="stop4528"
         offset="0"
         style="stop-color:#ffffff;stop-opacity:1;" />
    </linearGradient>
    <linearGradient
       id="linearGradient3600-4"
       inkscape:swatch="gradient">
      <stop
         id="stop3602-7"
         offset="0"
         style="stop-color:#f4f4f4;stop-opacity:1" />
      <stop
         id="stop3604-6"
         offset="1"
         style="stop-color:#dbdbdb;stop-opacity:1" />
    </linearGradient>
  </defs>
  <g
     id="layer9"
     label="status"
     style="display:inline"
     transform="translate(-1273.0002,327)">
    <path
       id="path999-8"
       style="font-style:normal;font-variant:normal;font-weight:normal;font-stretch:normal;font-size:15px;line-height:125%;font-family:Ubuntu;-inkscape-font-specification:Ubuntu;text-align:center;letter-spacing:0px;word-spacing:0px;writing-mode:lr-tb;text-anchor:middle;display:inline;fill:#808080;fill-opacity:1;stroke:none;stroke-width:0.0875;enable-background:new"
       d="M 0.70703125 0.25 L 0 0.95703125 L 14.539062 15.496094 L 15.246094 14.789062 L 13.457031 13 L 14 13 C 15.108 13 16 12.108 16 11 L 16 3 C 16 1.892 15.108 1 14 1 L 2 1 C 1.8336725 1 1.67369 1.0241699 1.5195312 1.0625 L 0.70703125 0.25 z M 2.4570312 2 L 14 2 C 14.554 2 15 2.446 15 3 L 15 11 C 15 11.554 14.554 12 14 12 L 12.457031 12 L 2.4570312 2 z M 0.0703125 2.484375 C 0.026669986 2.6491307 0 2.8211442 0 3 L 0 11 C 0 12.108 0.892 13 2 13 L 3.5214844 13 L 6 16 L 8 13 L 10.585938 13 L 9.5859375 12 L 7.5664062 12 L 6 14.400391 L 4.0332031 12 L 2 12 C 1.446 12 1 11.554 1 11 L 1 3.4140625 L 0.0703125 2.484375 z M 1.3007812 13 C 1.4526813 13.0168 1.6216187 13.0211 1.8242188 13 L 1.3007812 13 z "
       transform="translate(1273.0002,-327)" />
  </g>
  <g
     id="layer2"
     style="display:inline"
     transform="translate(-1032,-40)" />
  <g
     id="layer4"
     style="display:inline"
     transform="translate(-1032,-40)" />
  <g
     id="g1812"
     style="display:inline"
     transform="translate(-1032,-40)" />
  <g
     id="g6217"
     style="display:inline"
     transform="translate(-1032,-40)" />
  <g
     id="layer3"
     style="display:inline"
     transform="translate(-1032,-40)" />
  <g
     id="g1833"
     style="display:inline"
     transform="translate(-1032,-40)" />
  <g
     id="layer1"
     style="display:inline"
     transform="translate(-1032,-40)" />
</svg>

<svg version="1.1" viewBox="0 0 16 16" xmlns="http://www.w3.org/2000/svg">
 <path d="m0.70703 0.25-0.70703 0.70703 14.539 14.539 0.70703-0.70703-1.7891-1.7891h0.54297c1.108 0 2-0.892 2-2v-8c0-1.108-0.892-2-2-2h-12c-0.16633 0-0.32631 0.02417-0.48047 0.0625zm1.75 1.75h11.543c0.554 0 1 0.446 1 1v8c0 0.554-0.446 1-1 1h-1.543zm-2.3867 0.48438c-0.043643 0.16476-0.070312 0.33677-0.070312 0.51562v8c0 1.108 0.892 2 2 2h1.5215l2.4785 3 2-3h2.5859l-1-1h-2.0195l-1.5664 2.4004-1.9668-2.4004h-2.0332c-0.554 0-1-0.446-1-1v-7.5859z" enable-background="new" fill="#808080"/>
</svg>
